X: 571
T: Oh Sheela My Love   #2
T: a \.si\.gile mo \.gra\.d.
R: jig
%S: s:4 b:16(4+4+4+4)
B: O'Neill's 1850 #571
O: Hartnett
Z: J.B. Walsh walsh@math.ubc.ca
N: Compacted via repeats and multiple endings [JC]
N: If the slurs and grace notes in B are removed, it can also be written as 4 bars repeated.
Q: "Gaily."
M: 6/8
L: 1/8
%Q: 90
K: Em
"^A"[|] D    |: (DE)G   A2A |    (BAG) (GAB) |1 (c>d)c B2A |  AGE  E2G :|2 c>de B2A | AGE E2 |]
"^B1"||(c/d/)| (e>f)e   d2c |    (BGE) (GAB) |  (Be).e d2c | (BGB) c2  ||
"^B2" | d    |  e>fe {e}d2c | ({c}BGE) (GAB) |   c>dc  B2A |  AGE  E2  |]
